.local/share/icons/Gruvbox-Plus-Dark/panel/16/xfce4-fsguard-plugin-urgent.svg

<svg xmlns="http://www.w3.org/2000/svg" width="16" height="16" version="1.1">
 <defs>
  <style id="current-color-scheme" type="text/css">
   .ColorScheme-Text { color:#ebdbb2; } .ColorScheme-Highlight { color:#458588; }
  </style>
 </defs>
 <path style="fill:currentColor" class="ColorScheme-Text" d="M 3 1 C 2.446 1 2 1.446 2 2 L 2 14 C 2 14.554 2.446 15 3 15 L 8.0214844 15 C 8.0462024 14.774521 8.1008536 14.553107 8.2070312 14.347656 L 9.6015625 11.642578 L 10.318359 10.253906 A 4 4 0 0 1 8 11 L 4 11 L 4 7 A 4 4 0 0 1 8 3 A 4 4 0 0 1 12 7 A 4 4 0 0 1 11.828125 8.1601562 C 12.00786 8.0781574 12.197743 8.0140729 12.404297 8.0019531 L 12.40625 8.0019531 L 12.408203 8.0019531 C 12.468493 7.9986131 12.527601 7.9986131 12.587891 8.0019531 C 13.2052 8.0349328 13.731724 8.4173506 14 8.9316406 L 14 2 C 14 1.446 13.554 1 13 1 L 3 1 z M 8 5 A 2 2 0 0 0 6 7 A 2 2 0 0 0 8 9 A 2 2 0 0 0 10 7 A 2 2 0 0 0 8 5 z"/>
 <path style="fill:currentColor" class="ColorScheme-Highlight" d="M 12.462891 9 A 0.710646 0.79561028 0 0 0 11.884766 9.3964844 L 10.490234 12.101562 L 9.0957031 14.806641 A 0.710646 0.79561028 0 0 0 9 15.185547 A 0.710646 0.79561028 0 0 0 9.7109375 16 L 12.5 16 L 15.289062 16 A 0.710646 0.79561028 0 0 0 15.904297 14.806641 L 14.509766 12.101562 L 13.115234 9.3964844 A 0.710646 0.79561028 0 0 0 12.533203 9 A 0.710646 0.79561028 0 0 0 12.462891 9 z M 12 10 L 13 10 L 13 13 L 12 13 L 12 10 z M 12 14 L 13 14 L 13 15 L 12 15 L 12 14 z"/>
</svg>

<svg width="16" height="16" version="1.1" xmlns="http://www.w3.org/2000/svg">
  <defs>
    <style id="current-color-scheme" type="text/css">.ColorScheme-Text { color:#ebdbb2; } .ColorScheme-Highlight { color:#458588; } .ColorScheme-NeutralText { color:#fe8019; } .ColorScheme-PositiveText { color:#689d6a; } .ColorScheme-NegativeText { color:#fb4934; }</style>
  </defs>
  <path class="ColorScheme-Text" d="m3 1c-0.554 0-1 0.446-1 1v12c0 0.554 0.446 1 1 1h5.021c0.02472-0.2255 0.07937-0.4469 0.1855-0.6523l1.395-2.705 0.7168-1.389a4 4 0 0 1-2.318 0.7461h-4v-4a4 4 0 0 1 4-4 4 4 0 0 1 4 4 4 4 0 0 1-0.1719 1.16c0.1797-0.082 0.3696-0.1461 0.5762-0.1582h0.001953 0.001953c0.06029-0.00334 0.1194-0.00334 0.1797 0 0.6173 0.03298 1.144 0.4154 1.412 0.9297v-6.932c0-0.554-0.446-1-1-1h-10zm5 4a2 2 0 0 0-2 2 2 2 0 0 0 2 2 2 2 0 0 0 2-2 2 2 0 0 0-2-2z" fill="currentColor"/>
  <path class="ColorScheme-NeutralText" d="m12.46 9a0.7106 0.7956 0 0 0-0.5781 0.3965l-2.789 5.41a0.7106 0.7956 0 0 0-0.0957 0.3789 0.7106 0.7956 0 0 0 0.7109 0.8145h2.789 2.789a0.7106 0.7956 0 0 0 0.6152-1.193l-2.789-5.41a0.7106 0.7956 0 0 0-0.582-0.3965 0.7106 0.7956 0 0 0-0.07031 0zm-0.4629 1h1v3h-1v-3zm0 4h1v1h-1v-1z" fill="currentColor"/>
</svg>
